X:99
T:Red-Haired Boy
M:4/4
K:G
L:1/8
E |: "G" D2 GG (GA)Bc | dedB "C" c2 (Bc) | "G" d2 G2 GA B2 | "F" AG =F2 F2 z2 |
"G" uD2 GG GABc | dedB "C" c2 (Bc) | "G" d2 g2 "G7" g=fdc |1 "D" B2 G2 "G" G2 DE :|2 "D" B2 G2 "G" G2 z2 |
|: "F" (=fe)fg fedf | ed c2 "C" c2 Bc | "G" d2 G2 GA B2 | "F" AGDE =F2 z E |
"G" uD2 G2 GABc | dedB "C" c2 (Bc) | "G" d2 g2 "G7" g=fdc |1 "D" B2 G2 "G" G2 DE :|2 "D" B2 G2 "G" G2 z2 |

